X:1
T:Im Wald
T:Carl Maria von Weber
T:Pius Alexander Wolff
T:Im Wald
T:Chor der Zigeuner, Preciosa, 2. Akt
T:CPDL   —   Creative Commons Attribution Non Commercial 3.0
T:CPDL   —   Creative Commons Attribution Non Commercial 3.0
T:CPDL   —   Creative Commons Attribution Non Commercial 3.0
T:CPDL   —   Creative Commons Attribution Non Commercial 3.0
C:Carl Maria von Weber
Z:Pius Alexander Wolff
Z:CPDL   —   Creative Commons Attribution Non Commercial 3.0
%%score [ ( 1 2 ) 3 4 ]
L:1/8
Q:1/4=88
M:4/4
K:Eb
V:1 treble nm="Sopran\nAlt"
V:2 treble 
V:3 treble-8 nm="Tenor"
V:4 bass nm="Bass"
V:1
"^Mäßig"!f! B2 | e6!pp!"^Echo" B2 | e6!f! B2 | f6!pp!"^Echo" B2 | f6"^Original E-Dur"!f! e2 | %5
w: 1. Im|Wald, im|Wald, im|Wald, im|Wald, im|
w: 2. Die|Nacht, die|Nacht, die|Nacht, die|Nacht, die|
w: 3. Die|Welt, die|Welt, die|Welt, die|Welt, die|
 !>!dcBA G2 c2 | B6"^Echo"!pp! c2 | B6 z!f! B | !>!B2 e2 !^!f2 z"^Echo"!pp! B | B2 e2 f2 z!f! B | %10
w: fri- schen grü- nen Wald, im|Wald, im|Wald, wo's|E- cho schallt, wo's|E- cho schallt, im|
w: ra- ben- schwar- ze Nacht, die|Nacht, die|Nacht. Ge-|sel- len wacht, Ge-|sel- len wacht, durch-|
w: gro- ße wei- te Welt, die|Welt, die|Welt ist|un- ser Zelt, ist|un- ser Zelt, die|
 !>!g>g !>!fB !^!e2 z"^Echo"!pp! B | g>g fB e2 z |:!f!"^Halbchor, die Wiederholung Chor" B | %13
w: Wald, wo's E- cho schallt, im|Wald, wo's E- cho schallt,|da|
w: wacht die schwar- ze Nacht, durch-|wacht die schwar- ze Nacht.|Die|
w: Welt ist un- ser Zelt, die|Welt ist un- ser Zelt.|Und|
 !>!B!<(!B/B/ BB/!<)!B/ !>!dB!^!B!f!B | !>!B!<(!B/B/!<)! !>!BB/B/ !>!eB!^!B :|!f!"^Chor" !wedge!e | %16
w: tö- net Ge- sang und der Hör- ner- klang so|lus- tig den schwei- gen- den Forst ent- lang.|Tra-|
w: Wöl- fe, sie lau- ern und sind nicht fern, das|Bel- len der Hun- de sie hören’s nicht gern.|Wau-|
w: wan- dern wir sin- gend, so schallt die Luft, die|Wäl- der, die Tä- ler, die felsi- ge Kluft.|Hal-|
 !^!G3 !wedge!e !^!G3 !wedge!g |"^cresc." !^!B3 !wedge!g !^!B3!ff! !wedge!e | %18
w: ra, tra- ra, tra-|ra, tra- ra, tra-|
w: wau, wau- wau, wau-|wau, wau- wau, wau-|
w: lo, hal- lo, hal-|lo, hal- lo, hal-|
 !>!e>e !>!e>e !fermata!g3"^Echo"!pp! e | e>e e>e !fermata!g2 |] %20
w: ra, tra- ra, tra- ra, tra-|ra, tra- ra, tra- ra.|
w: wau, wau- wau, wau- wau, wau-|wau, wau- wau, wau- wau.|
w: lo, hal- lo, hal- lo, hal-|lo, hal- lo, hal- lo.|
V:2
 B2 | G6 B2 | G6 B2 | B6 B2 | B6 e2 | dcBA G2 c2 | B6 c2 | B6 x B | G2 G2 B2 x B | G2 G2 B2 x B | %10
 B>B BA G2 x B | B>B BA G2 x |: G | FF/F/ FF/F/ BFFF | GG/G/ GG/G/ GGG :| e | G3 e G3 e | %17
 G3 e G3 G | G>G G>G B3 G | G>G G>G B2 |] %20
V:3
!f! B2 | B6!pp! B2 | B6!f! B2 | d6!pp! B2 | d6!f! e2 | !>!dcBA G2 c2 | B6!pp! c2 | B6 z!f! B | %8
w: 1. Im|Wald, im|Wald, im|Wald, im|Wald, im|fri- schen grü- nen Wald, im|Wald, im|Wald, wo's|
w: 2. Die|Nacht, die|Nacht, die|Nacht, die|Nacht, die|ra- ben- schwar- ze Nacht, die|Nacht, die|Nacht. Ge-|
w: 3. Die|Welt, die|Welt, die|Welt, die|Welt, die|gro- ße wei- te Welt, die|Welt, die|Welt ist|
 !>!e2 e2 !^!d2 z!pp! B | e2 e2 d2 z!f! B | !>!e>e !>!dB !^!B2 z!pp! B | e>e dB B2 z |:!f! e | %13
w: E- cho schallt, wo's|E- cho schallt, im|Wald, wo's E- cho schallt, im|Wald, wo's E- cho schallt,|da|
w: sel- len wacht, Ge-|sel- len wacht, durch-|wacht die schwar- ze Nacht, durch-|wacht die schwar- ze Nacht.|Die|
w: un- ser Zelt, ist|un- ser Zelt, die|Welt ist un- ser Zelt, die|Welt ist un- ser Zelt.|Und|
 !>!d!<(!d/d/ dd/!<)!d/ !>!fd!^!d!f!d | !>!e!<(!e/e/!<)! !>!ee/e/ !>!Be!^!e :|!f! !wedge!e | %16
w: tö- net Ge- sang und der Hör- ner- klang so|lus- tig den schwei- gen- den Forst ent- lang.|Tra-|
w: Wöl- fe, sie lau- ern und sind nicht fern, das|Bel- len der Hun- de sie hören’s nicht gern.|Wau-|
w: wan- dern wir sin- gend, so schallt die Luft, die|Wäl- der, die Tä- ler, die felsi- ge Kluft.|Hal-|
 !^!G3 !wedge!e !^!G3 !wedge!g |"^cresc." !^!B3 !wedge!g !^!B3!ff! !wedge!B | %18
w: ra, tra- ra, tra-|ra, tra- ra, tra-|
w: wau, wau- wau, wau-|wau, wau- wau, wau-|
w: lo, hal- lo, hal-|lo, hal- lo, hal-|
 !>!B>B !>!B>B !fermata!e3!pp! B | B>B B>B !fermata!e2 |] %20
w: ra, tra- ra, tra- ra, tra-|ra, tra- ra, tra- ra.|
w: wau, wau- wau, wau- wau, wau-|wau, wau- wau, wau- wau.|
w: lo, hal- lo, hal- lo, hal-|lo, hal- lo, hal- lo.|
V:4
!f! B,2 | E,6!pp! B,2 | E,6!f! B,2 | B,,6!pp! B,2 | B,,6!f! E2 | !>!DCB,A, G,2 C2 | B,6!pp! C2 | %7
 B,6 z!f! B, | !>!E,2 E,2 !^!B,,2 z!pp! B, | E,2 E,2 B,,2 z!f! B, | %10
 !>!E,>E, !>!B,,B,, !^!E,2 z!pp! B, | E,>E, B,,B,, E,2 z |:!f! E, | %13
 !>!B,!<(!B,/B,/ B,B,/!<)!B,/ !>!B,B,!^!B,!f!B, | !>!E,!<(!E,/E,/!<)! !>!E,E,/E,/ !>!E,E,!^!E, :| %15
!f! !wedge!E | !^!G,3 !wedge!E !^!G,3 !wedge!E |"^cresc." !^!G,3 !wedge!E !^!G,3!ff! !wedge!E, | %18
 !>!E,>E, !>!E,>E, !fermata!E,3!pp! E, | E,>E, E,>E, !fermata!E,2 |] %20

